source/img/icons/leaf-point.svg

<svg width="32" height="32" viewBox="0 0 32 32" fill="none" xmlns="http://www.w3.org/2000/svg">
<path fill-rule="evenodd" clip-rule="evenodd" d="M23.9705 5.00487C24.2347 4.99908 24.4973 5.04613 24.743 5.14327C24.9897 5.24078 25.2143 5.38677 25.4035 5.5726C25.5927 5.75843 25.7427 5.98033 25.8447 6.22518C25.9466 6.47002 25.9984 6.73282 25.997 6.99802L25.9969 7.00859L25.9969 7.00859C25.958 9.4499 25.7004 13.4152 23.8284 16.7914C22.8824 18.4978 21.5193 20.063 19.5676 21.1959C17.6173 22.3281 15.136 22.9957 12.003 22.9957C11.4507 22.9957 11.003 22.5479 11.003 21.9957C11.003 21.4434 11.4507 20.9957 12.003 20.9957C14.8469 20.9957 16.9688 20.392 18.5635 19.4662C20.1569 18.5413 21.2807 17.2619 22.0793 15.8216C23.6903 12.916 23.9569 9.39596 23.9967 7.00473C15.6367 7.16032 11.7958 9.26101 9.94525 11.9002C8.90725 13.3805 8.42383 15.1121 8.19877 16.9945C9.5308 15.6089 11.6266 14.4099 14.8789 14.0034C15.427 13.9349 15.9268 14.3236 15.9953 14.8716C16.0638 15.4196 15.675 15.9194 15.127 15.9879C11.4085 16.4528 9.68561 18.0444 8.85464 19.3948C8.42625 20.0909 8.212 20.7609 8.1054 21.2539C8.05227 21.4996 8.02657 21.6982 8.01421 21.8296C8.00804 21.8952 8.00523 21.9436 8.00396 21.9722C8.00333 21.9865 8.00308 21.9958 8.003 21.9999L8.00296 22.0019L8.00296 22.0021C8.00296 22.0021 8.00296 22.0016 8.00298 22.0005V25.9957C8.00298 26.5479 7.55527 26.9957 7.00298 26.9957C6.4507 26.9957 6.00298 26.5479 6.00298 25.9957V21.9957C6.00298 21.9463 6.00298 21.8968 6.00297 21.8473C6.00254 18.2353 6.00203 14.0401 8.30771 10.7519C10.703 7.33593 15.3526 5.16349 23.9705 5.00487ZM23.9705 5.00487C23.9695 5.00489 23.9685 5.00492 23.9676 5.00494L23.991 6.00466L23.9726 5.00483C23.9719 5.00485 23.9712 5.00486 23.9705 5.00487ZM8.00298 22.0005C8.00299 22.0003 8.00299 22.0001 8.003 21.9999Z" fill="#0F805D"/>
</svg>

<svg xmlns="http://www.w3.org/2000/svg" width="32" height="32" fill="none"><path fill="#0F805D" fill-rule="evenodd" d="M23.97 5.005a1.983 1.983 0 0 1 2.027 1.993v.01c-.039 2.442-.297 6.407-2.169 9.783-.946 1.707-2.309 3.272-4.26 4.405-1.95 1.132-4.432 1.8-7.565 1.8a1 1 0 0 1 0-2c2.844 0 4.966-.604 6.56-1.53 1.594-.925 2.718-2.204 3.516-3.644 1.611-2.906 1.878-6.426 1.918-8.817-8.36.155-12.201 2.256-14.052 4.895-1.038 1.48-1.521 3.212-1.746 5.094 1.332-1.385 3.428-2.584 6.68-2.99a1 1 0 1 1 .248 1.984c-3.719.465-5.441 2.056-6.272 3.407a5.98 5.98 0 0 0-.75 1.859 4.944 4.944 0 0 0-.101.718L8.003 22v.002V22v3.996a1 1 0 0 1-2 0v-4.149c0-3.612-.001-7.807 2.305-11.095 2.395-3.416 7.045-5.589 15.663-5.747Zm0 0h-.002l.023 1-.018-1h-.002ZM8.004 22Z" clip-rule="evenodd"/></svg>
